X:335
T:B335-  Now the Tories That Glories
Q:1/4=120
L:1/4
M:9/4
K:C
c2GEGEEGE|c2GE/G/F3/2E/D2=B|A2GEGEEGA/B/|\
cBAGE2C3||c2GEGEEGE|c2GE/G/F3/2E/D2=B|d2ABdedBG|\
cBAGE2C3||d2cegedfd|e2dcefgec|d2ABdedBG|\
c2GE/F/F3/2E/D2=B|A2GEGEEGA/B/|c3/2B/AGE2C3|]

